icons/codespaces-3-24.svg

<svg width="24" height="24" viewBox="0 0 24 24" fill="none" xmlns="http://www.w3.org/2000/svg">
<path fill-rule="evenodd" clip-rule="evenodd" d="M7.71967 3.96967C8.01256 3.67678 8.48744 3.67678 8.78033 3.96967L12 7.18933L15.2197 3.96968C15.3607 3.82861 15.5522 3.74956 15.7517 3.75001C15.9512 3.75047 16.1423 3.83039 16.2827 3.97211L23.7146 11.4721C24.0042 11.7644 24.0042 12.2356 23.7146 12.5279L16.2827 20.0279C16.1423 20.1696 15.9512 20.2496 15.7517 20.25C15.5522 20.2505 15.3607 20.1714 15.2197 20.0303L12 16.8107L8.78033 20.0303C8.63968 20.171 8.44891 20.25 8.25 20.25C8.05109 20.25 7.86032 20.171 7.71967 20.0303L0.21967 12.5303C0.0790173 12.3897 -1.19209e-07 12.1989 0 12C1.19209e-07 11.8011 0.0790179 11.6103 0.21967 11.4697L7.71967 3.96967ZM13.0606 15.75L15.7476 18.4369L22.126 12L15.7476 5.5631L13.0607 8.24999L16.2803 11.4697C16.421 11.6103 16.5 11.8011 16.5 12C16.5 12.1989 16.421 12.3897 16.2803 12.5303L13.0606 15.75ZM10.9393 8.24999L7.71966 11.4697C7.579 11.6103 7.49999 11.8011 7.49999 12C7.49999 12.1989 7.579 12.3897 7.71966 12.5303L10.9393 15.75L8.25 18.4393L1.81066 12L8.25 5.56066L10.9393 8.24999ZM12 9.31065L14.6893 12L12 14.6893L9.31065 12L12 9.31065Z" fill="black"/>
</svg>

<svg xmlns="http://www.w3.org/2000/svg" width="24" height="24" viewBox="0 0 24 24"><path fill-rule="evenodd" d="M7.72 3.97a.75.75 0 011.06 0L12 7.19l3.22-3.22a.75.75 0 011.063.002l7.432 7.5a.75.75 0 010 1.056l-7.432 7.5a.75.75 0 01-1.063.002L12 16.81l-3.22 3.22a.75.75 0 01-1.06 0l-7.5-7.5a.75.75 0 010-1.06l7.5-7.5zm5.34 11.78l2.688 2.687L22.126 12l-6.378-6.437L13.06 8.25l3.22 3.22a.75.75 0 010 1.06l-3.22 3.22zm-2.12-7.5l-3.22 3.22a.75.75 0 000 1.06l3.22 3.22-2.69 2.69L1.81 12l6.44-6.44 2.69 2.69zM12 9.31L14.69 12 12 14.69 9.31 12 12 9.31z"/></svg>
